X:1
T:The Star of the County Down
M:3/4
L:1/8
Q:1/4=120
K:Am
EA|"Am"A2B2cd|"G"e2d2B2|"Am"A2B2cd|"Em"e4EA|"Am"A2B2cd|"G"e2d2Bd|"Am"c2A2GE|"Am"A4EA|"Am"A2B2cd|"G"e2d2B2|"Am"A2B2cd|"Em"e4ea|"Am"a2g2ed|"G"e2d2Bd|"Am"c2A2GE|"Am"A4||
